src/actions/24/tag-edit.svg

<svg xmlns="http://www.w3.org/2000/svg" version="1.1" viewBox="0 0 24 24" width="24" height="24">
  <defs>
    <style id="current-color-scheme" type="text/css">.ColorScheme-Text {
        color:#363636;
      }</style>
  </defs>
  <g transform="translate(1,1)">
    <path class="ColorScheme-Text" d="m9 3-6 2 2 6 7 3.5v-2.5h5l2-4-10-5zm-6 2v6l8 8 1-1v-2.634766l-8-4.365234-1-6zm3.5 0c0.831 0 1.5 0.669 1.5 1.5s-0.669 1.5-1.5 1.5-1.5-0.669-1.5-1.5 0.669-1.5 1.5-1.5zm10.5 8-4 4v2h2l4-4-2-2zm-0.310547 1.689453 0.591797 0.591797-2.96875 2.984375v0.015625l-0.59375-0.59375 2.970703-2.998047z" fill="currentColor"/>
  </g>
</svg>

<svg xmlns="http://www.w3.org/2000/svg" width="24" height="24">
    <path fill="currentColor" d="M9 3 3 5l2 6 7 3.5V12h5l2-4L9 3zM3 5v6l8 8 1-1v-2.635L4 11 3 5zm3.5 0C7.331 5 8 5.669 8 6.5S7.331 8 6.5 8 5 7.331 5 6.5 5.669 5 6.5 5zM17 13l-4 4v2h2l4-4-2-2zm-.31 1.69.591.591-2.968 2.985v.015l-.594-.593 2.97-2.999z" style="color:#050505;opacity:.7" transform="translate(1 1)"/>
</svg>
